img/brand_visual_balustrade1.svg

<svg width="134" height="33" viewBox="0 0 134 33" fill="none" xmlns="http://www.w3.org/2000/svg">
<g clip-path="url(#clip0)">
<path d="M133.153 7.48117L2.84693 7.24326C2.62221 7.24326 2.4067 7.15042 2.2478 6.98517C2.0889 6.81991 1.99963 6.59578 1.99963 6.36208L2.05894 0.881175C2.05894 0.647473 2.14821 0.423342 2.30711 0.25809C2.46601 0.0928378 2.68152 0 2.90624 0L133.093 2.71402C133.318 2.71402 133.534 2.80686 133.693 2.97211C133.851 3.13736 133.941 3.36149 133.941 3.59519L134.017 6.6C134.017 6.71722 133.995 6.83326 133.951 6.94133C133.907 7.04941 133.843 7.14734 133.763 7.2294C133.682 7.31146 133.587 7.37599 133.482 7.41923C133.377 7.46246 133.265 7.48352 133.153 7.48117Z" fill="#FFF5D9"/>
<path d="M131.628 32.4449L1.32178 32.2069C1.09707 32.2069 0.881554 32.1141 0.722655 31.9489C0.563756 31.7836 0.474487 31.5595 0.474487 31.3258L0.525325 25.8449C0.525325 25.6112 0.614594 25.387 0.773493 25.2218C0.932392 25.0565 1.1479 24.9637 1.37262 24.9637L131.568 27.6689C131.793 27.6689 132.008 27.7617 132.167 27.927C132.326 28.0922 132.416 28.3164 132.416 28.5501L132.492 31.5549C132.493 31.6728 132.471 31.7898 132.428 31.8989C132.385 32.008 132.321 32.107 132.241 32.19C132.16 32.273 132.064 32.3383 131.959 32.3821C131.854 32.4259 131.741 32.4472 131.628 32.4449Z" fill="#FFF5D9"/>
<path d="M11.9129 31.4932H6.63428L7.79507 2.14124H11.9129V31.4932Z" fill="#FFF5D9"/>
<path d="M67.8007 31.4932H62.5305L63.6828 2.14124H67.8007V31.4932Z" fill="#FFF5D9"/>
<path d="M80.9846 3.73621H86.2633L85.1025 30.8588H80.9846V3.73621Z" fill="#FFF5D9"/>
<path d="M29.8418 30.0833L23.8005 29.0876L23.2413 2.14126L27.3253 0.731384L29.8418 30.0833Z" fill="#FFF5D9"/>
<path d="M41.4413 1.26007L47.4825 2.24699L48.0417 29.2021L43.9578 30.612L41.4413 1.26007Z" fill="#FFF5D9"/>
<path d="M128.645 30.8588H123.375L124.527 3.73621H128.645V30.8588Z" fill="#FFF5D9"/>
<path d="M102.286 3.05768L108.327 4.01816L108.886 30.1626L104.802 31.5373L102.286 3.05768Z" fill="#FFF5D9"/>
<path d="M1.51662 1.38342C1.58441 3.41012 1.65219 5.43682 1.73692 7.46352C1.73692 7.54065 1.76638 7.61461 1.81881 7.66914C1.87125 7.72367 1.94237 7.75431 2.01653 7.75431C4.38896 7.92173 6.76986 8.00104 9.15077 8.0451C12.7094 8.10678 16.2596 8.23015 19.8098 8.2742C24.275 8.33589 28.7403 8.37113 33.2055 8.40638C38.2893 8.45044 43.3053 8.45044 48.3552 8.45925C53.7271 8.45925 59.0905 8.45925 64.4538 8.45925L80.6626 8.36232L96.1258 8.23896L110.047 8.08916C113.843 8.05391 117.642 8.00691 121.443 7.94817C124.137 7.94817 126.832 7.94817 129.526 7.84243C129.984 7.84243 130.441 7.78075 130.899 7.78075C130.964 7.76889 131.022 7.73368 131.065 7.68131C131.107 7.62893 131.13 7.56274 131.13 7.49436C131.13 7.42599 131.107 7.3598 131.065 7.30742C131.022 7.25505 130.964 7.21984 130.899 7.20798C128.518 7.20798 126.137 7.15511 123.756 7.1463C120.198 7.1463 116.647 7.1463 113.089 7.1463L99.6929 7.19917L84.5433 7.26085L68.4446 7.33135L52.2358 7.40184L36.7726 7.4459C32.1295 7.4459 27.4947 7.4459 22.8516 7.4459C19.0641 7.4459 15.2259 7.30491 11.4639 7.39303C8.77796 7.45471 6.06661 7.30491 3.38915 7.21679L2.01653 7.17274L2.29614 7.46352C2.16904 5.43682 2.025 3.41012 1.88096 1.38342C1.88096 1.1455 1.50815 1.13669 1.51662 1.38342Z" fill="#343B38"/>
<path d="M0.381284 26.5146C0.127095 28.4884 0.0677838 30.4622 0 32.4449C0.00217721 32.575 0.0528666 32.6992 0.141382 32.7913C0.229898 32.8834 0.349325 32.9361 0.474486 32.9383C2.21992 32.7621 3.97382 32.7709 5.71925 32.7445C8.50686 32.7445 11.2945 32.7445 14.0821 32.7445C21.4027 32.7973 28.7234 32.9207 36.0525 32.9736H42.6106C43.6697 32.9736 44.7203 32.9736 45.771 32.9736C46.8404 32.9855 47.9097 32.9355 48.9738 32.8238C49.0516 32.7988 49.1198 32.7485 49.1681 32.6803C49.2165 32.6121 49.2426 32.5296 49.2426 32.4449C49.2426 32.3601 49.2165 32.2776 49.1681 32.2094C49.1198 32.1412 49.0516 32.091 48.9738 32.066C48.0252 31.9629 47.0721 31.9129 46.1184 31.9162C45.1863 31.9162 44.2543 31.8633 43.3138 31.8545L37.4844 31.7928C33.6207 31.7928 29.7571 31.6871 25.8934 31.6606C19.4624 31.6606 13.0314 31.5373 6.60044 31.6606C4.55846 31.7223 2.54189 31.7223 0.474486 31.9514L0.948973 32.4449C1.01252 30.4676 0.978584 28.4882 0.847297 26.5146C0.836705 26.456 0.806776 26.4032 0.762682 26.3651C0.718589 26.3271 0.663103 26.3063 0.605817 26.3063C0.548531 26.3063 0.493046 26.3271 0.448952 26.3651C0.404859 26.4032 0.374929 26.456 0.364338 26.5146H0.381284Z" fill="#343B38"/>
</g>
<defs>
<clipPath id="clip0">
<rect width="134" height="33" fill="white"/>
</clipPath>
</defs>
</svg>

<svg xmlns="http://www.w3.org/2000/svg" width="134" height="33" fill="none" xmlns:v="https://vecta.io/nano"><g clip-path="url(#A)"><g fill="#fff5d9"><path d="M133.153 7.481L2.847 7.243a.83.83 0 0 1-.599-.258A.9.9 0 0 1 2 6.362L2.059.881a.9.9 0 0 1 .248-.623A.83.83 0 0 1 2.906 0l130.187 2.714c.225 0 .441.093.6.258s.248.389.248.623l.076 3.005c0 .117-.022.233-.066.341s-.108.206-.188.288a.85.85 0 0 1-.281.19.82.82 0 0 1-.329.062zm-1.525 24.964L1.322 32.207a.83.83 0 0 1-.599-.258.9.9 0 0 1-.248-.623l.051-5.481a.9.9 0 0 1 .248-.623.83.83 0 0 1 .599-.258l130.195 2.705a.83.83 0 0 1 .599.258.9.9 0 0 1 .249.623l.076 3.005a.92.92 0 0 1-.064.344.89.89 0 0 1-.187.291c-.081.083-.177.148-.282.192a.82.82 0 0 1-.331.063z"/><path d="M11.913 31.493H6.634L7.795 2.141h4.118v29.352zm55.888 0h-5.27l1.152-29.352h4.118v29.352zM80.985 3.736h5.279l-1.161 27.123h-4.118V3.736zM29.842 30.083l-6.041-.996-.559-26.946 4.084-1.41 2.517 29.352zM41.441 1.26l6.041.987.559 26.955-4.084 1.41L41.441 1.26zm87.204 29.599h-5.27l1.152-27.123h4.118v27.123zM102.286 3.058l6.041.96.559 26.144-4.084 1.375-2.516-28.48z"/></g><g fill="#343b38"><path d="M1.517 1.383l.22 6.08c0 .077.029.151.082.206s.124.085.198.085l7.134.291 10.659.229 13.396.132 15.15.053h16.099l16.209-.097 15.463-.123 13.921-.15 11.396-.141 8.083-.106 1.373-.062a.28.28 0 0 0 .166-.099.3.3 0 0 0 0-.374.28.28 0 0 0-.166-.099c-2.381 0-4.762-.053-7.143-.062H113.09l-13.396.053-15.15.062-16.099.071-16.209.07-15.463.044H22.852c-3.788 0-7.626-.141-11.388-.053-2.686.062-5.397-.088-8.075-.176l-1.373-.044.28.291-.415-6.08c0-.238-.373-.247-.364 0zM.381 26.515C.127 28.488.068 30.462 0 32.445c.002.13.053.254.141.346s.208.145.333.147c1.745-.176 3.499-.167 5.245-.194h8.363l21.97.229h6.558 3.16a27.64 27.64 0 0 0 3.203-.15.38.38 0 0 0 .194-.143.41.41 0 0 0 .075-.235c0-.084-.026-.167-.075-.235a.38.38 0 0 0-.194-.143c-.949-.103-1.902-.153-2.855-.15-.932 0-1.864-.053-2.805-.062l-5.829-.062c-3.864 0-7.727-.106-11.591-.132-6.431 0-12.862-.123-19.293 0-2.042.062-4.059.062-6.126.291l.474.493a60.21 60.21 0 0 0-.102-5.93c-.011-.059-.041-.111-.085-.149a.24.24 0 0 0-.157-.059.24.24 0 0 0-.157.059c-.044.038-.074.091-.085.149h.017z"/></g></g><defs><clipPath id="A"><path fill="#fff" d="M0 0h134v33H0z"/></clipPath></defs></svg>
